X: 1414
T: Elma's Two Step
B: australian traditional tunes wiki
M:2/4
L:1/8
R: Two Step
Q: 1/4=100
K:G
V:1 
"G"GG/>G/ GG/>G/|GB dB|"C"gg/>g/ ge|"G"d3B|"D7"dc2_A|BA2A|"G"GG2E|"D"D4|
"G"GG/>G/ GG/>G/|GB dB|"C"gg/>g/ ge|"G"d3d/e/|"D"fA Ad/e/|fA Ad/e/|"A7"fe d^c|"D"d2d^c|
"D7"cc2B|A2A2|"G"BB2e|d3g|"D7"ff2a|"C"e2g2|"D7"fe dc|"G"B3d|
"D7"cc2B|A2A2|"G"BB2e|d3g|"D"aa2a|"D+"^aa2a|"G"b2"D7".a2|"G"g4||
% abcbook-tune_id 6342d53a0648fd3ccc8aa2ea


% abcbook-boost 0
% abcbook-tablature 
% abcbook-transpose 
% abcbook-lastupdated 1665324364038
% abcbook-soundfonts 
% abcbook-repeats 1
% NFF Book 2016

